assets/img/braze_icons/slash-circle-02.svg

<svg fill="none" height="24" viewBox="0 0 24 24" width="24" xmlns="http://www.w3.org/2000/svg"><path clip-rule="evenodd" d="m12 1c-6.07513 0-11 4.92487-11 11 0 6.0751 4.92487 11 11 11 6.0751 0 11-4.9249 11-11 0-6.07513-4.9249-11-11-11zm-5.61769 3.9681c1.53968-1.23163 3.49268-1.9681 5.61769-1.9681 2.125 0 4.078.73646 5.6176 1.96807l-5.6176 5.61763zm-1.41421 1.41421c-1.23163 1.53968-1.9681 3.49268-1.9681 5.61769 0 2.125.73646 4.078 1.96807 5.6176l5.61763-5.6176zm1.41417 12.64959c1.53968 1.2316 3.4927 1.9681 5.61773 1.9681 2.125 0 4.078-.7365 5.6177-1.9681l-5.6177-5.6177zm12.64963-1.4142c1.2316-1.5397 1.9681-3.4927 1.9681-5.6177 0-2.12503-.7365-4.07805-1.9681-5.61773l-5.6177 5.61773z" fill="#801ed7" fill-rule="evenodd"/></svg>

<svg width="24" height="24" viewBox="0 0 24 24" fill="none" xmlns="http://www.w3.org/2000/svg">
<path fill-rule="evenodd" clip-rule="evenodd" d="M12 1C5.92487 1 1 5.92487 1 12C1 18.0751 5.92487 23 12 23C18.0751 23 23 18.0751 23 12C23 5.92487 18.0751 1 12 1ZM6.38231 4.9681C7.92199 3.73647 9.87499 3 12 3C14.125 3 16.078 3.73646 17.6176 4.96807L12 10.5857L6.38231 4.9681ZM4.9681 6.38231C3.73647 7.92199 3 9.87499 3 12C3 14.125 3.73646 16.078 4.96807 17.6176L10.5857 12L4.9681 6.38231ZM6.38227 19.0319C7.92195 20.2635 9.87497 21 12 21C14.125 21 16.078 20.2635 17.6177 19.0319L12 13.4142L6.38227 19.0319ZM19.0319 17.6177C20.2635 16.078 21 14.125 21 12C21 9.87497 20.2635 7.92195 19.0319 6.38227L13.4142 12L19.0319 17.6177Z" fill="#801ED7"/>
</svg>
